assets/images/quote-icon.svg

<svg fill="none" height="235" viewBox="0 0 258 235" width="258" xmlns="http://www.w3.org/2000/svg"><path d="m226.895 0c-43.068 43.1632-92.117 101.913-92.117 166.658 0 49.158 29.908 68.342 57.424 68.342 33.497 0 59.816-26.378 59.816-58.75 0-29.975-21.534-53.954-49.049-57.551 5.981-31.1735 28.712-61.148 55.031-87.5256zm-133.5809 0c-44.2644 43.1632-93.3141 101.913-93.3141 166.658 0 49.158 31.1047 68.342 58.6204 68.342 33.4974 0 58.6206-26.378 58.6206-58.75 0-29.975-20.3379-53.954-49.0499-57.551 5.9816-31.1735 28.712-61.148 56.2279-87.5256z" fill="#f8f4ee"/></svg>

<svg width="258" height="235" viewBox="0 0 258 235" fill="none" xmlns="http://www.w3.org/2000/svg">
<path d="M226.895 0C183.827 43.1632 134.778 101.913 134.778 166.658C134.778 215.816 164.686 235 192.202 235C225.699 235 252.018 208.622 252.018 176.25C252.018 146.275 230.484 122.296 202.969 118.699C208.95 87.5255 231.681 57.551 258 31.1734L226.895 0ZM93.3141 0C49.0497 43.1632 0 101.913 0 166.658C0 215.816 31.1047 235 58.6204 235C92.1178 235 117.241 208.622 117.241 176.25C117.241 146.275 96.9031 122.296 68.1911 118.699C74.1727 87.5255 96.9031 57.551 124.419 31.1734L93.3141 0Z" fill="#F8F4EE"/>
</svg>
